X:942
T:Donald Blue
R:reel
O:Shetland
Z:id:hn-reel-942
M:C|
L:1/8
K:D
dBAF AFAB | dBAF E2D2 | dBAF AFAd | BB2A B4 :|
|: ABde fafd | fafd edB2 | ABde fafd | BB2A B4 :|
P:Irish version:
|: dBAF A2FA | dBAF EFD2 | dBAF A2FA |1 ~B3A BABc :|2 ~B3A B2dB ||
|: ABde ~f3d | gefd edBd | ABde fded |1 ~B3A B2dB :|2 ~B3A BABc ||
P:Variations of Irish version
|: dBAF A2FA | dBAF EFD2 | dBAF A2FA |1 ABBA B2AB :|2 ABBA B2dB ||
|: ABde fa~a2 | g2fg edBd | ABde f2ed |1 ABBA B2dB :|2 ABBA B2AB ||

